X: 060965
T: Flying Column
S: "Music from Ireland 3" (Bulmer & Sharpley)
N: as printed but parts are usually played in reverse order
Z: B.Black
R: reel 
M: 4/4
L: 1/8
K: D
FA|d3B AF F2|AFBF A2 Bc|dcdB A2 FA|BFAF EABc|
d3c B3c|BA^GB ABde|fdec dBcA|BdAF E2 :|
FE|D2 (3FED AD (3FED|Addc de f2|D2 (3FED ADFA|\
BFAF EDCE|
D2 (3FED AD (3FED|Addc defg|afge dfec|BdAF E4 :|
